X: 17813
T: Hop Down, The
R: reel
M: 4/4
K: Gmajor
e2E2 A3 A|ABcd edBA|agec d2 (3ddd|BAGB d2 gf|
e2E2 A3 A|ABcd edBA|agec d2 (3ddd|BAGB d2 (3Bcd:|
eAaA eAfA|eAfA g2fg|eAaA efge|dBGB d2|
eAaA eAfA|eAfA g2 a|bgaf gfed|BAGA d2:|

